{
 "compressionlevel": -1,
 "height": 10,
 "width": 12,
 "infinite": false,
 "layers": [
  {
   "data": [
    7,
    7,
    7,
    7,
    7,
    7,
    7,
    7,
    7,
    7,
    7,
    7,
    7,
    6,
    6,
    6,
    6,
    6,
    6,
    6,
    6,
    6,
    6,
    7,
    7,
    6,
    19,
    6,
    6,
    6,
    6,
    6,
    6,
    6,
    21,
    7,
    7,
    6,
    6,
    6,
    6,
    20,
    6,
    6,
    6,
    6,
    6,
    7,
    7,
    6,
    6,
    6,
    6,
    6,
    6,
    6,
    6,
    6,
    6,
    7,
    7,
    6,
    6,
    6,
    6,
    6,
    6,
    6,
    6,
    6,
    6,
    7,
    7,
    6,
    6,
    6,
    6,
    6,
    6,
    6,
    6,
    6,
    6,
    7,
    7,
    6,
    6,
    6,
    6,
    6,
    6,
    6,
    6,
    6,
    6,
    7,
    7,
    7,
    7,
    7,
    7,
    22,
    22,
    7,
    7,
    7,
    7,
    7,
    7,
    7,
    7,
    7,
    7,
    7,
    7,
    7,
    7,
    7,
    7,
    7
   ],
   "height": 10,
   "id": 1,
   "name": "ground",
   "opacity": 1,
   "type": "tilelayer",
   "visible": true,
   "width": 12,
   "x": 0,
   "y": 0
  },
  {
   "data": [
    7,
    7,
    7,
    7,
    7,
    7,
    7,
    7,
    7,
    7,
    7,
    7,
    7,
    0,
    0,
    0,
    0,
    0,
    0,
    0,
    0,
    0,
    0,
    7,
    7,
    0,
    19,
    0,
    0,
    0,
    0,
    0,
    0,
    0,
    21,
    7,
    7,
    0,
    0,
    0,
    0,
    20,
    0,
    0,
    0,
    0,
    0,
    7,
    7,
    0,
    0,
    0,
    0,
    0,
    0,
    0,
    0,
    0,
    0,
    7,
    7,
    0,
    0,
    0,
    0,
    0,
    0,
    0,
    0,
    0,
    0,
    7,
    7,
    0,
    0,
    0,
    0,
    0,
    0,
    0,
    0,
    0,
    0,
    7,
    7,
    0,
    0,
    0,
    0,
    0,
    0,
    0,
    0,
    0,
    0,
    7,
    7,
    7,
    7,
    7,
    7,
    0,
    0,
    7,
    7,
    7,
    7,
    7,
    7,
    7,
    7,
    7,
    7,
    7,
    7,
    7,
    7,
    7,
    7,
    7
   ],
   "height": 10,
   "id": 2,
   "name": "collision",
   "opacity": 1,
   "type": "tilelayer",
   "visible": true,
   "width": 12,
   "x": 0,
   "y": 0
  }
 ],
 "nextlayerid": 3,
 "nextobjectid": 1,
 "orientation": "orthogonal",
 "renderorder": "right-down",
 "tiledversion": "1.12.2",
 "tileheight": 16,
 "tilewidth": 16,
 "type": "map",
 "version": "1.10",
 "tilesets": [
  {
   "columns": 9,
   "firstgid": 1,
   "image": "../tilesets/palette.png",
   "imageheight": 48,
   "imagewidth": 144,
   "margin": 0,
   "name": "palette",
   "spacing": 0,
   "tilecount": 27,
   "tileheight": 16,
   "tilewidth": 16,
   "tiles": [
    {
     "id": 17,
     "properties": [
      {
       "name": "colisao",
       "type": "bool",
       "value": true
      },
      {
       "name": "tipo",
       "type": "string",
       "value": "casa_interativa"
      }
     ]
    },
    {
     "id": 18,
     "properties": [
      {
       "name": "colisao",
       "type": "bool",
       "value": true
      },
      {
       "name": "tipo",
       "type": "string",
       "value": "cama"
      }
     ]
    },
    {
     "id": 19,
     "properties": [
      {
       "name": "colisao",
       "type": "bool",
       "value": true
      },
      {
       "name": "tipo",
       "type": "string",
       "value": "guarda_roupa"
      }
     ]
    },
    {
     "id": 20,
     "properties": [
      {
       "name": "colisao",
       "type": "bool",
       "value": true
      },
      {
       "name": "tipo",
       "type": "string",
       "value": "abajur"
      }
     ]
    },
    {
     "id": 21,
     "properties": [
      {
       "name": "colisao",
       "type": "bool",
       "value": false
      },
      {
       "name": "tipo",
       "type": "string",
       "value": "porta_casa"
      }
     ]
    }
   ]
  }
 ],
 "properties": [
  {
   "name": "spawnX",
   "type": "int",
   "value": 104
  },
  {
   "name": "spawnY",
   "type": "int",
   "value": 120
  }
 ]
}